X:372
T:B372-  Phillida Flouts Me
S:(2nd/3)
Q:1/4=120
L:1/4
M:6/4
K:E phrygian
EGGGGc|EGGGE2|EGGGGc|EGGGE2|\
eeee3/2f/d|eggge2|ceee3/2f/d|dggge2|\
edcB3/2A/G|ccde3/2f/g|edcB3/2A/G|ccGGE2|]

